icon/pk/stapler.svg

<svg viewBox="0 0 48 48" fill="none" xmlns="http://www.w3.org/2000/svg" height="1em" width="1em">
  <path d="M42 35V43H6V35H31" stroke="black" stroke-width="4" stroke-linecap="round" stroke-linejoin="round"/>
  <path d="M38.3839 21.8065L8.31372 10.8618L5.57756 18.3794L29.7533 27.1786" stroke="black" stroke-width="4" stroke-linecap="round" stroke-linejoin="round"/>
  <path d="M8.36963 10.7783L22.8821 16.1584C22.898 16.1643 22.9157 16.1562 22.9216 16.1403V16.1403C23.9362 13.4035 22.5401 10.3625 19.8033 9.34789L10.3014 5.82532C10.255 5.80811 10.2034 5.83179 10.1862 5.87821L8.36963 10.7783Z" stroke="black" stroke-width="4" stroke-linecap="round" stroke-linejoin="round"/>
  <path d="M16.7545 22.72L15.3865 26.4788C15.1976 26.9977 14.6237 27.2653 14.1047 27.0764L7.52689 24.6823C7.00791 24.4934 6.74033 23.9196 6.92922 23.4006L8.2973 19.6418" stroke="black" stroke-width="4" stroke-linecap="round" stroke-linejoin="round"/>
  <circle cx="36" cy="30" r="7" fill="#2F88FF" stroke="black" stroke-width="4"/>
</svg>

<svg width="48" height="48" fill="none" xmlns="http://www.w3.org/2000/svg"><path d="M42 35v8H6v-8h25M38.384 21.806 8.314 10.862l-2.736 7.517 24.175 8.8M8.37 10.778l14.512 5.38a.03.03 0 0 0 .04-.018v0a5.285 5.285 0 0 0-3.119-6.792l-9.502-3.523a.09.09 0 0 0-.115.053l-1.816 4.9ZM16.755 22.72l-1.368 3.759a1 1 0 0 1-1.282.597l-6.578-2.394a1 1 0 0 1-.598-1.281l1.368-3.76" stroke="#000" stroke-width="4" stroke-linecap="round" stroke-linejoin="round"/><circle cx="36" cy="30" r="7" fill="#2F88FF" stroke="#000" stroke-width="4"/></svg>
